resources/svg/major-import-store.svg

<svg xmlns="http://www.w3.org/2000/svg" viewBox="0 0 20 20" fill="currentColor"><path fill-rule="evenodd" d="M1.01414 5.8356L1.62326 2.2534C1.74627 1.53012 2.38499 1 3.13324 1H16.8668C17.615 1 18.2537 1.53012 18.3767 2.2534L18.9859 5.8356C19.0895 6.44513 18.6099 7 17.9794 7H17.0686C16.4888 7 15.9589 6.679 15.6996 6.17082L15.1022 5L14.5048 6.17082C14.2455 6.679 13.7156 7 13.1358 7H11.9664C11.3866 7 10.8567 6.679 10.5974 6.17082L10 5L9.40259 6.17082C9.14331 6.679 8.61339 7 8.03362 7H6.8642C6.28443 7 5.75452 6.679 5.49524 6.17082L4.89782 5L4.30041 6.17082C4.04113 6.679 3.51121 7 2.93144 7H2.02062C1.39006 7 0.910473 6.44513 1.01414 5.8356ZM7.79297 8.79289C7.40244 9.18342 7.40244 9.81658 7.79297 10.2071L8.58569 11L2 11C1.44772 11 1 11.4477 1 12C1 12.5523 1.44772 13 2 13H8.58569L7.79297 13.7929C7.40244 14.1834 7.40244 14.8166 7.79297 15.2071C8.18349 15.5976 8.81651 15.5976 9.20703 15.2071L11.707 12.7071C11.8029 12.6112 11.8753 12.5007 11.9241 12.3828C11.9726 12.2657 11.9996 12.1375 12 12.003V11.997C11.9992 11.7267 11.8913 11.4817 11.7163 11.3021L11.7061 11.2918L9.20703 8.79289C8.81651 8.40237 8.18349 8.40237 7.79297 8.79289ZM18 9H16V17H4V15H2V17.5C2 18.3284 2.67157 19 3.5 19H16.5C17.3284 19 18 18.3284 18 17.5V9Z" fill="#5C5F62"/></svg>

<svg xmlns="http://www.w3.org/2000/svg" viewBox="0 0 20 20" fill="currentColor"><path fill-rule="evenodd" d="m1.014 5.836.61-3.583a1.522 1.522 0 0 1 1.51-1.253h13.733c.748 0 1.387.53 1.51 1.253l.609 3.583c.104.61-.376 1.164-1.007 1.164h-.91c-.58 0-1.11-.321-1.37-.83l-.597-1.17-.597 1.17c-.26.509-.79.83-1.37.83h-1.169c-.58 0-1.11-.321-1.369-.83l-.597-1.17-.597 1.17c-.26.509-.79.83-1.37.83h-1.169c-.58 0-1.11-.321-1.369-.83l-.597-1.17-.598 1.17c-.259.509-.789.83-1.369.83h-.91c-.63 0-1.11-.555-1.007-1.164Zm6.779 2.957a1 1 0 0 0 0 1.414l.793.793h-6.586a1 1 0 1 0 0 2h6.586l-.793.793a1 1 0 0 0 1.414 1.414l2.5-2.5a.998.998 0 0 0 .293-.704v-.006a.997.997 0 0 0-.284-.695l-.01-.01-2.499-2.5a1 1 0 0 0-1.414 0Zm10.207.207h-2v8h-12v-2h-2v2.5a1.5 1.5 0 0 0 1.5 1.5h13a1.5 1.5 0 0 0 1.5-1.5v-8.5Z"/></svg>
